sprites/streets-v8/_svg/school-15.svg

<svg viewBox="-4 -4 23 23" width="23" height="23" data-reactid=".0.1.1.$school-15=1svg3.0.0"><rect x="-3" y="-3" rx="10.5" ry="10.5" width="21" height="21" stroke="#fff" style="stroke-linejoin:round;stroke-miterlimit:4px;" fill="#fff" stroke-width="2" data-reactid=".0.1.1.$school-15=1svg3.0.0.0"></rect><rect x="-3" y="-3" width="21" height="21" rx="10.5" ry="10.5" fill="#99833d" data-reactid=".0.1.1.$school-15=1svg3.0.0.1"></rect><path fill="#fff" d="M 10.867188 1.2539062 C 10.749999 1.2773438 10.625 1.3398437 10.5 1.4648438 L 6.5 5.5 C 6.00431 6 6 7 6 7 L 6 8 L 7 8 C 7.5366691 8 8 8 8.5 7.5 C 8.5 7.5 10.999253 4.975695 12.5 3.4648438 C 12.5 3.4648438 13.017389 2.982233 12.5 2.4648438 L 11.5 1.4648438 C 11.5 1.4648438 11.21875 1.1835939 10.867188 1.2539062 z M 1.7128906 3.8964844 C 1.3115566 3.833253 1 4.0579428 1 4.5996094 L 1 11 L 6 13 C 6 14 7 14 7 14 L 8 14 C 8 14 9 14 9 13 L 14 11 L 14 4.5996094 C 14 4.1660829 13.797164 3.9446744 13.511719 3.9023438 L 9.2070312 8.2070312 L 8.7070312 8.7070312 C 8.5195197 8.8945677 8.265199 8.9999489 8 9 L 8 12.5 L 7 12.5 L 7 9 L 6 9 C 5.4477381 8.9999448 5.0000552 8.5522619 5 8 L 5 5.1992188 L 2.1367188 4.0546875 C 1.9913806 3.9707764 1.8466676 3.9175615 1.7128906 3.8964844 z M 7.25 5.5 L 8.5 6.75 L 8.1269531 7.1269531 C 7.768307 7.4887185 7.3186887 7.5 7 7.5 L 6.5 7.5 L 6.5 7 C 6.5 6.6813113 6.6280379 6.1280333 6.8769531 5.8769531 L 7.25 5.5 z " data-reactid=".0.1.1.$school-15=1svg3.0.0.3:$school-15=1svg-0-fill"></path></svg>

<?xml version="1.0" encoding="utf-8"?>
<!-- Generator: Adobe Illustrator 17.1.0, SVG Export Plug-In . SVG Version: 6.00 Build 0)  -->
<!DOCTYPE svg PUBLIC "-//W3C//DTD SVG 1.1//EN" "http://www.w3.org/Graphics/SVG/1.1/DTD/svg11.dtd">
<svg version="1.1"
	 id="svg2" xmlns:svg="http://www.w3.org/2000/svg" xmlns:cc="http://creativecommons.org/ns#" xmlns:dc="http://purl.org/dc/elements/1.1/" xmlns:rdf="http://www.w3.org/1999/02/22-rdf-syntax-ns#"
	 xmlns="http://www.w3.org/2000/svg" xmlns:xlink="http://www.w3.org/1999/xlink" x="0px" y="0px" width="23px" height="23px"
	 viewBox="0 0 23 23" enable-background="new 0 0 23 23" xml:space="preserve">
<ellipse id="ellipse4" fill="#FFFFFF" cx="11.5" cy="11.5" rx="11.5" ry="11.5"/>
<ellipse id="ellipse6" fill="#B5A462" cx="11.5" cy="11.5" rx="10.5" ry="10.5"/>
<g id="g8" transform="translate(4,4)">
	<path id="path6911" fill="#FFFFFF" d="M10.9,1.3c-0.1,0-0.2,0.1-0.4,0.2l-4,4C6,6,6,7,6,7v1h1c0.5,0,1,0,1.5-0.5c0,0,2.5-2.5,4-4
		c0,0,0.5-0.5,0-1l-1-1C11.5,1.5,11.2,1.2,10.9,1.3z M1.7,3.9C1.3,3.8,1,4.1,1,4.6V11l5,2c0,1,1,1,1,1h1c0,0,1,0,1-1l5-2V4.6
		c0-0.4-0.2-0.7-0.5-0.7L9.2,8.2L8.7,8.7C8.5,8.9,8.3,9,8,9v3.5H7V9H6C5.4,9,5,8.6,5,8V5.2L2.1,4.1C2,4,1.8,3.9,1.7,3.9z M7.2,5.5
		l1.2,1.2L8.1,7.1C7.8,7.5,7.3,7.5,7,7.5H6.5V7c0-0.3,0.1-0.9,0.4-1.1L7.2,5.5z"/>
</g>
</svg>
